X:1
L:1/8
Q:1/4=120
M:2/4
K:C
 f2 ef | d3 e/f/ | gf ed | e/f/e/d/ c2 | f2 ef | d3 e/f/ | gf ed | c4 :: d>e cd | B3 c | d>c dg | 
 f/g/ f/e/ dc | d2 cd | B3 c | d>c dc/d/ | c4 :|
